!!!!SEGMENT:pl-kk--kk-i-385--014_anonim-eja-mater.krn
!!!id: 17xx:1994
!!!COM: Anonim
!!!OTL: Eja Mater
!!!PDT:
!!!SMS-siglum: PL-Kk
!!!SMS-shelfmark: Kk.I.385
!!!NIFC-rismID: 1001143579
!!!URL-scan: http://repozytorium.nifc.pl/skany/pl-kk-nut--i-385
!!!ONB-nifc: UWAGA: obsada: S, A, T; S: skan 0007; A: skan 0014; T: skan 0019
!!!SMS-variant:
!!!SMS-altvar:
**kern	**text	**kern	**text	**kern	**text
*part3	*part3	*part2	*part2	*part1	*part1
*staff3	*staff3	*staff2	*staff2	*staff1	*staff1
*I"Tenore.	*	*I"Alto.	*	*I"Soprano.	*
*I'T	*	*I'A	*	*I'S	*
*clefC4	*	*clefC3	*	*clefC1	*
*k[b-]	*	*k[b-]	*	*k[b-]	*
*M3/2	*	*M3/2	*	*M3/2	*
=1	=1	=1	=1	=1	=1
!LO:TX:a:i:t=I4.sty Tenore. Eia Mater. z Roku 1670.	!	!LO:TX:a:i:t=I4.ty Alto. Eia mater.	!	!LO:TX:a:i:t=I4.sty. Soprano. Eia mater.	!
!LO:TX:t=P:problem:all\right:global	!	!LO:TX:t=P:problem:all\right:global	!	!LO:TX:t=P:problem:all\right:global	!
1A	E-	1c	E-	1f	E-
*2\right	*	*2\right	*	*2\right	*
2c\	-ia	2e\	-ia	2g\	-ia
=2	=2	=2	=2	=2	=2
1c	ma-	1f	ma-	1a	ma-
2c\	-ter	2f\	-ter	2a\	-ter
=3	=3	=3	=3	=3	=3
1d	fons	1f	fons	1b-	fons
2d\	a-	2g\	a-	2b-\	a-
=4	=4	=4	=4	=4	=4
1.c	-mo-	1.a	-mo-	1.a	-mo-
=5	=5	=5	=5	=5	=5
1.c	-ris	1.f	-ris	1.a	-ris
=6	=6	=6	=6	=6	=6
1c	me	1a	me	1cc	me
2A\	sen-	2a\	sen-	2cc\	sen-
=7	=7	=7	=7	=7	=7
1d	-ti-	1g	-ti-	1b-	-ti-
2B-\	-re	2g\	-re	2b-\	-re
!	!	!	!	!LO:LB:g=original	!
=8	=8	=8	=8	=8	=8
1c	vim	1f	vim	1a	vim
!	!	!LO:LB:g=original	!	!	!
2F/	do-	2f\	do-	2a\	do-
!LO:LB:g=original	!	!	!	!	!
=9	=9	=9	=9	=9	=9
1.c	-lo-	1.e	-lo-	1.g	-lo-
=10	=10	=10	=10	=10	=10
1.c	-ris	1.e	-ris,	1.g	-ris,
=11	=11	=11	=11	=11	=11
1A	fac	1c	fac	1f	fac
2c\	ut	2c\	ut	2g\	ut
=12	=12	=12	=12	=12	=12
1c	te-	1f	te-	1a	te-
2d\	-cum	2f\	-cum	2b-\	-cum
=13	=13	=13	=13	=13	=13
1c	lu-	1f	lu-	1g	lu-
2c\	-ge-	2e\	-ge-	2g\	-ge-
=14	=14	=14	=14	=14	=14
!LO:TX:t=P:problem:brak ||	!	!	!	!	!
1.c	-am,	1.f	-am,	1.a	-am,
=15	=15	=15||	=15||	=15||	=15||
1A	fac	1d	fac	1f	fac
2c\	ut	2e\	ut	2g\	ut
!	!	!	!	!LO:LB:g=original	!
=16	=16	=16	=16	=16	=16
2.c\	ar-	2.f\	ar-	2.a\	ar-
4c\	-de-	4c\	-de-	4g\	-de-
2d\	-at	2f\	-at	4f\	-at
.	.	.	.	4g\	.
!LO:LB:g=original	!	!LO:LB:g=original	!	!	!
=17	=17	=17	=17	=17	=17
2A\	cor	2e\	cor	2a\	cor
1d	me-	2d\	me-	2a\	me-
.	.	2g\	.	2g\	.
=18	=18	=18	=18	=18	=18
2c#X\	-um	1e	-um	1.a	-um,
2e\	in	.	.	.	.
2d\	a-	2r	.	.	.
=19	=19	=19	=19	=19	=19
!	!	!	!	!LO:N:vis=0	!
!	!	!	!	!LO:TX:a:t=2:problem:dopisane olówkiem	!
1cn	-man-	1.r	.	0.r	.
2Bn\	-do	.	.	.	.
=20	=20	=20	=20	=20	=20
1.A	Chri-	2r	.	.	.
.	.	2a\	in	.	.
.	.	2g\	a-	.	.
=21	=21	=21	=21	=21	=21
1.A	-stum	4f\	-man-	2r	.
.	.	4e\	.	.	.
.	.	4f\	.	2dd\	in
.	.	4g\	.	.	.
.	.	2a\	-do	2cc\	a-
=22	=22	=22	=22	=22	=22
1G#X	Chri-	1e	Chri-	2.bn\	-man-
.	.	.	.	4b\	-do
2A\	.	2c\	-stum	2cc\	Chri-
=23	=23	=23	=23	=23	=23
2A\	-stum	1.e	De-	2cc\	-stum
!	!	!	!	!LO:LB:g=original	!
2A\	De-	.	.	2cc\	me-
2G#X/	.	.	.	2bn\	.
!LO:LB:g=original	!	!	!	!	!
=24	=24	=24	=24	=24	=24
1A	-um	1.e	-um,	1cc	-um,
2r	.	.	.	2r	.
!	!	!LO:LB:g=original	!	!	!
=25	=25	=25	=25	=25	=25
!	!	!	!	!LO:TX:a:t=2	!
!	!	!	!	!LO:N:vis=0	!
2r	.	1.r	.	0.r	.
2r	.	.	.	.	.
2c\	ut	.	.	.	.
=26	=26	=26	=26	=26	=26
2A\	ti-	2r	.	.	.
2F/	-bi	2r	.	.	.
2c\	com-	2f\	ut	.	.
=27	=27	=27	=27	=27	=27
4c\	-pla-	2e\	ti-	2r	.
4d\	.	.	.	.	.
4e\	.	2c\	-bi	2r	.
4d\	.	.	.	.	.
4c\	.	2e\	com-	2cc\	ut
4B-X\	.	.	.	.	.
=28	=28	=28	=28	=28	=28
2A\	.	2.f\	-pla-	2a\	ti-
1d	.	.	.	2f\	-bi
.	.	4g\	.	.	.
.	.	2a\	.	2a\	com-
=29	=29	=29	=29	=29	=29
1c#X	.	2.e\	.	1a	-pla-
.	.	4f\	.	.	.
[>2d\	.	2g\	.	[>2b-X\	.
!LO:LB:g=original	!	!	!	!	!
=30	=30	=30	=30	=30	=30
!LO:TX:t=P:problem:brak zakończenia ligatury	!	!	!	!	!
1d]	.	4g\	.	2b-\]	.
.	.	4f\	.	.	.
.	.	2.e\	.	2a\	.
2c#X\	-ce-	.	.	2a\	-ce-
.	.	4e\	-ce-	.	.
!	!	!	!	!LO:LB:g=original	!
=31	=31	=31	=31	=31	=31
!LO:N:vis=0	!	!LO:N:vis=0	!	!LO:N:vis=0	!
1.d;>	-am,	1.f#X	-am.	1.a;>	-am,
!	!	!LO:LB:g=original	!	!	!
=32||	=32||	=32||	=32||	=32||	=32||
1A	San-	1c	San-	1f	San-
2c\	-cta	2e\	-cta	2g\	-cta
=33	=33	=33	=33	=33	=33
1c	ma-	1f	ma-	1a	ma-
2c\	-ter	2f\	-ter	2a\	-ter
=34	=34	=34	=34	=34	=34
1d	is-	1f	is-	1b-X	is-
2d\	-tud	2g\	-tud	2b-\	-tud
=35	=35	=35	=35	=35	=35
1.c	a-	1.a	a-	1.a	a-
=36	=36	=36	=36	=36	=36
1.c	-gas,	1.f	-gas,	1.a	-gas
=37	=37	=37	=37	=37	=37
1c	cru-	1a	cru-	1cc	cru-
2A\	-ci-	2a\	-ci-	2cc\	-ci-
!LO:LB:g=original	!	!	!	!	!
=38	=38	=38	=38	=38	=38
1d	-fi-	1g	-fi-	1b-	-fi-
2B-\	-xi	2g\	-xi	2b-\	-xi
!	!	!	!	!LO:LB:g=original	!
=39	=39	=39	=39	=39	=39
1c	fi-	1f	fi-	1a	fi-
2F/	-ge	2f\	-ge	2a\	-ge
!	!	!LO:LB:g=original	!	!	!
=40	=40	=40	=40	=40	=40
1.c	pla-	1.e	pla-	1.g	pla-
=41	=41	=41	=41	=41	=41
1.c	-gas	1.e	-gas	1.g	-gas
=42	=42	=42	=42	=42	=42
1A	cor-	1c	cor-	1f	cor-
2c\	-di	2c\	-di	2g\	-di
=43	=43	=43	=43	=43	=43
1c	me-	1f	me-	1a	me-
2d\	-o	2f\	-o	2b-\	-o
=44	=44	=44	=44	=44	=44
1c	va-	2f\	va-	1g	va-
.	.	2f\	.	.	.
2c\	-li-	2e\	-li-	2g\	-li-
=45	=45	=45	=45	=45	=45
1.c	-de	1.f	-de	1.a	-de
!LO:LB:g=original	!	!	!	!	!
=46	=46	=46	=46	=46	=46
1A	tu-	1d	tu-	1f	tu-
2c\	-i	2e\	-i	2g\	-i
=47	=47	=47	=47	=47	=47
2.c\	na-	2.f\	na-	2.a\	na-
4c\	-ti	4c\	-ti	4g\	-ti
!	!	!LO:LB:g=original	!	!LO:LB:g=original	!
2d\	vul-	2f\	vul-	4f\	vul-
.	.	.	.	4g\	.
=48	=48	=48	=48	=48	=48
2A\	-ne-	2e\	-ne-	2a\	-ne-
1d	-ra-	2d\	-ra-	2a\	-ra-
.	.	2g\	.	2g\	.
=49	=49	=49	=49	=49	=49
2c#X\	-ti	1e	-ti	1.a	-ti
2e\	tam	.	.	.	.
2d\	dig-	2r	.	.	.
=50	=50	=50	=50	=50	=50
!	!	!	!	!LO:N:vis=0	!
!	!	!	!	!LO:TX:a:t=2:problem:dopisane ołówkiem	!
1cn	-na-	1.r	.	0.r	.
2Bn\	-ti	.	.	.	.
=51	=51	=51	=51	=51	=51
1.A	pro	2r	.	.	.
.	.	2a\	tam	.	.
.	.	2g\	dig-	.	.
=52	=52	=52	=52	=52	=52
1.A	me	4f\	-na-	2r	.
.	.	4e\	.	.	.
.	.	4f\	.	2dd\	tam
.	.	4g\	.	.	.
.	.	2a\	-ti	2cc\	dig-
!LO:LB:g=original	!	!	!	!	!
=53	=53	=53	=53	=53	=53
1G#X	pro	1e	pro	2.bn\	-na-
.	.	.	.	4b\	-ti
!	!	!LO:LB:g=original	!	!	!
2A\	.	2c\	me	2cc\	pro
=54	=54	=54	=54	=54	=54
2A\	me	1.e	pa-	2cc\	me
2A\	pa-	.	.	2cc\	pa-
2G#X\	.	.	.	2bn\	.
!	!	!	!	!LO:LB:g=original	!
=55	=55	=55	=55	=55	=55
1A	-ti	1.e	-ti	1.cc	-ti
2r	.	.	.	.	.
=56	=56	=56	=56	=56	=56
!	!	!	!	!LO:N:vis=0	!
!	!	!	!	!LO:TX:a:t=2:problem:dopisane ołówkiem	!
2r	.	1.r	.	0.r	.
2r	.	.	.	.	.
!LO:SIC:l:v:s=poe-	!	!	!	!	!
2c\	pe-	.	.	.	.
=57	=57	=57	=57	=57	=57
2A\	.	2r	.	.	.
2F/	.	2r	.	.	.
!	!	!LO:SIC:l:v:s=poe-	!	!	!
2c\	-nas	2f\	pe-	.	.
=58	=58	=58	=58	=58	=58
4c\	me-	2e\	-nas	2r	.
4d\	.	.	.	.	.
!LO:SIC:t:v:s=4c poprawione na 4e	!	!	!	!	!
4e\	.	2c\	me-	2r	.
!LO:SIC:t:v:s=4B-X poprawione na 4d	!	!	!	!	!
4d\	.	.	.	.	.
!LO:LB:g=original	!	!s	!	!	!
!	!	!	!	!LO:SIC:l:v:s=poe-	!
4c\	.	2e\	-cum	2cc\	pe-
4B-X\	cum	.	.	.	.
=59	=59	=59	=59	=59	=59
2A\	di-	2.f\	di-	2a\	-nas
1d	.	.	.	2f/	me-
.	.	4g\	.	.	.
.	.	2a\	.	2a\	-cum
!	!	!LO:LB:g=original	!	!	!
=60	=60	=60	=60	=60	=60
1c#X	.	2.e\	.	1a	di-
.	.	4f\	.	.	.
[>2d\	.	2g\	.	[>2b-X\	.
=61	=61	=61	=61	=61	=61
2d\]	.	4g\	.	2b-\]	.
.	.	4f\	.	.	.
2d\	.	2.e\	.	2a\	.
2c#X\	-vi-	.	.	2a\	-vi-
.	.	4e\	vi-	.	.
=62	=62	=62	=62	=62	=62
!LO:N:vis=0	!	!LO:N:vis=0	!	!LO:N:vis=0	!
1.d;>	-de.	1.f#X;>	-de.	1.a;>	-de.
==	==	==	==	==	==
*-	*-	*-	*-	*-	*-
!!!system-decoration: [(s1,s2,s3)]
!!!RDF**kern: > = above
!!!RDF**kern: < = below
!!!ENC: Krzysztof Stępień
!!!END: 2021-02-09
!!!EED: Mateusz Mrugas
!!!EST: 2021-02-14
